X: 21471
T: FEATHER BED -- Reel
R: reel
B: K\"ohler's Violin Repository, v.2, 1885 p.147 #1
F: http://www.archive.org/details/klersviolinrepos02rugg
Z: 2012 John Chambers <jc:trillian.mit.edu>
M: C|
L: 1/8
K: C
|:\
vc2ec A2dc | Bdgf edcB | c2ec A2dc | BGAB c2G2 :|
ve2eg (gf)fa | (ag)gf (fe)dc | e2eg (gf)fa | (3gag (3fed c2G2 |
 e2eg (gf)fa | (ag)gf (fe)dc | (eg)fe (fa)g^f | gafg efde "_D.C."|]

%%sep 2 1 500

